public/images/brands/tailgrids-light.svg

<svg fill="none" height="36" viewBox="0 0 161 36" width="161" xmlns="http://www.w3.org/2000/svg" xmlns:xlink="http://www.w3.org/1999/xlink"><clipPath id="a"><path d="m1 0h36v36h-36z"/></clipPath><g fill="#fff"><g clip-path="url(#a)"><path d="m36.9424 16.5169c-.0177-.1796-.1008-.3464-.2336-.4686-.1328-.1221-.306-.1911-.4864-.1938h-17.9424c-.4872.0119-.9628.1511-1.3797.4037-.4168.2526-.7603.6099-.9963 1.0363-.2185.3814-.3334.8133-.3334 1.2528s.1149.8714.3334 1.2528c.0624.1199.155.2215.2686.2947.1136.0733.2444.1156.3793.1229h19.7137c.1805-.0027.3536-.0717.4864-.1939.1328-.1221.216-.2889.2336-.4685 0-.5616 0-1.0368 0-1.44s0-1.0512-.0432-1.5984z" opacity=".72"/><path d="m36.928 16.5169c-.0142-.1784-.0943-.345-.2248-.4674-.1304-.1225-.3019-.192-.4807-.195h-2.88c-.1011.0011-.2007.0235-.2925.0657s-.1737.1032-.2403.1791c-.0672.073-.1175.1598-.1473.2544-.0299.0945-.0386.1945-.0255.2928v1.44c-.0037 2.2978-.586 4.5577-1.6933 6.571-1.1074 2.0134-2.7041 3.7154-4.6428 4.949-.2016.1296-.3887.288-.6047.4032-1.0566.6018-2.1903 1.0571-3.3697 1.3536l1.8865 3.3552c.064.1109.1565.2028.2679.2661.1114.0632.2375.0957.3656.0939.0762.0137.1543.0137.2305 0l.4607-.1872.4176-.1728c.637-.2646 1.2574-.5675 1.8577-.9072 2.8076-1.5815 5.1404-3.8861 6.756-6.6742 1.6156-2.788 2.4551-5.9579 2.4312-9.1802 0-.5328-.0289-.9504-.0721-1.44z"/><path d="m26.735 30.1848c-.0968-.1642-.2506-.2872-.4321-.3456h-.2016c-.125.0011-.2482.0306-.36.0864-2.0534 1.1684-4.3766 1.7791-6.7391 1.7712-3.6258-.0076-7.101-1.4513-9.66483-4.0151-2.56385-2.5639-4.00758-6.039-4.01519-9.6648.00761-3.6259 1.45134-7.101 4.01519-9.66486 2.56383-2.56385 6.03903-4.00758 9.66483-4.01519 2.3614.00076 4.6825.61082 6.7391 1.7712.1075.06823.2327.10329.36.1008h.1584c.0987-.0218.1919-.06374.2737-.12321.0817-.05946.1504-.13518.2016-.22239l1.44-2.5056c.0952-.16664.1214-.36393.0729-.54963-.0484-.1857-.1677-.34506-.3322-.44397-2.7105-1.531703-5.7713-2.3353835-8.8847-2.3327938-4.7716.0076163-9.34552 1.9064838-12.71952 5.2804938-3.37401 3.374-5.27286 7.94795-5.28047 12.71955.00761 4.7715 1.90646 9.3455 5.28047 12.7195 3.374 3.374 7.94792 5.2728 12.71952 5.2804 3.1134.0026 6.1742-.8011 8.8847-2.3328.0824-.0462.1547-.1085.2125-.1832.0579-.0747.1001-.1602.1243-.2515s.0298-.1866.0165-.2801-.0453-.1834-.094-.2644z"/><path d="m21.0592 20.16h-4.5503c-.129-.0092-.2541-.0493-.3644-.117-.1102-.0677-.2026-.1609-.2693-.2718l8.3665 14.8176c.0641.111.1565.2028.2679.2661s.2376.0957.3656.0939c.0811.0137.1639.0137.2449 0 .9515-.3425 1.8718-.7665 2.7505-1.2672.0823-.0462.1544-.1085.2123-.1832.0578-.0747.1001-.1602.1243-.2515.0241-.0913.0298-.1866.0165-.2801s-.0453-.1834-.094-.2644z" opacity=".56"/></g><path d="m57.4219 11.5475v16.5535h-3.1749v-16.5535h-4.8373v-2.73599h12.8359v2.73599z"/><path d="m73.1058 15.9326h3.0795v12.1684h-3.0795v-1.2743c-1.2627 1.0827-2.6208 1.6241-4.0743 1.6241-1.835 0-3.352-.608-4.5512-1.824-1.19-1.241-1.785-2.7902-1.785-4.6475 0-1.824.595-3.344 1.785-4.56 1.1901-1.216 2.6799-1.824 4.4695-1.824 1.5443 0 2.9296.583 4.156 1.749zm-7.2765 6.0467c0 1.166.3407 2.1155 1.022 2.8485.6995.7412 1.5807 1.1119 2.6435 1.1119 1.1355 0 2.053-.3582 2.7525-1.0745.6995-.7412 1.0492-1.6824 1.0492-2.8234 0-1.1411-.3497-2.0822-1.0492-2.8235-.6995-.7246-1.6079-1.0869-2.7252-1.0869-1.0538 0-1.935.3665-2.6435 1.0994-.6995.7413-1.0493 1.6574-1.0493 2.7485z"/><path d="m83.1211 15.9326v12.1684h-3.0659v-12.1684zm-3.5292-5.0597c0-.4914.1953-.91618.5859-1.27432s.8585-.53721 1.4035-.53721c.5542 0 1.0265.17907 1.4172.53721.3906.34981.5859.77872.5859 1.28682 0 .508-.1953.9411-.5859 1.2993-.3816.3581-.8494.5372-1.4035.5372-.5542 0-1.0266-.1791-1.4172-.5372-.3906-.3582-.5859-.7954-.5859-1.3118z"/><path d="m90.0705 7v21.101h-3.0659v-21.101z"/><path d="m105.359 18.0565h8.694v.6371c0 1.4492-.186 2.7319-.559 3.8479-.363 1.0328-.976 1.9989-1.839 2.8984-1.954 2.0156-4.438 3.0234-7.454 3.0234-2.943 0-5.4642-.9745-7.5626-2.9234-2.0985-1.9573-3.1477-4.306-3.1477-7.0462 0-2.7985 1.0674-5.1722 3.2022-7.1211 2.1348-1.95725 4.7331-2.93588 7.7941-2.93588 1.644 0 3.18.30816 4.606.92449 1.362.61633 2.702 1.61579 4.02 2.99839l-2.262 1.9864c-1.726-2.1072-3.829-3.1608-6.309-3.1608-2.226 0-4.093.7038-5.6008 2.1114-1.508 1.3825-2.2619 3.1149-2.2619 5.1971 0 2.1488.8402 3.9187 2.5208 5.3096 1.5719 1.291 3.2749 1.9365 5.1099 1.9365 1.562 0 2.966-.4831 4.211-1.4492 1.244-.9745 1.939-2.1405 2.084-3.4981h-5.246z"/><path d="m117.473 15.9326h3.066v1.0869c.563-.5413 1.063-.912 1.499-1.1119.445-.2082.972-.3123 1.58-.3123.809 0 1.654.2415 2.535.7246l-1.404 2.5736c-.581-.3831-1.149-.5747-1.703-.5747-1.671 0-2.507 1.1577-2.507 3.4731v6.3091h-3.066z"/><path d="m131.413 15.9326v12.1684h-3.066v-12.1684zm-3.53-5.0597c0-.4914.196-.91618.586-1.27432.391-.35814.859-.53721 1.404-.53721.554 0 1.026.17907 1.417.53721.391.34981.586.77872.586 1.28682 0 .508-.195.9411-.586 1.2993-.382.3581-.849.5372-1.403.5372-.555 0-1.027-.1791-1.418-.5372-.39-.3582-.586-.7954-.586-1.3118z"/><path d="m145.08 7h3.079v21.101h-3.079v-1.2743c-1.208 1.0827-2.576 1.6241-4.102 1.6241-1.817 0-3.324-.608-4.524-1.824-1.19-1.241-1.785-2.7902-1.785-4.6475 0-1.8157.595-3.3315 1.785-4.5475 1.181-1.2243 2.667-1.8365 4.456-1.8365 1.554 0 2.943.583 4.17 1.749zm-7.277 14.9793c0 1.166.341 2.1155 1.022 2.8485.7.7412 1.581 1.1119 2.644 1.1119 1.135 0 2.053-.3582 2.752-1.0745.7-.7412 1.05-1.6824 1.05-2.8234 0-1.1411-.35-2.0822-1.05-2.8235-.699-.7246-1.608-1.0869-2.725-1.0869-1.054 0-1.935.3665-2.643 1.0994-.7.7413-1.05 1.6574-1.05 2.7485z"/><path d="m159.742 18.0065-2.535 1.2368c-.399-.7496-.895-1.1244-1.485-1.1244-.282 0-.522.0875-.722.2624-.2.1666-.3.3831-.3.6496 0 .4664.59.9287 1.771 1.3868 1.626.6413 2.721 1.2326 3.284 1.774.564.5414.845 1.2701.845 2.1863 0 1.1744-.472 2.1572-1.417 2.9484-.917.7496-2.026 1.1244-3.325 1.1244-2.225 0-3.802-.9953-4.728-2.9859l2.616-1.1119c.364.583.641.9537.831 1.1119.373.3165.818.4748 1.336.4748 1.035 0 1.553-.4331 1.553-1.2993 0-.4998-.4-.9662-1.199-1.3993-.309-.1416-.618-.279-.927-.4122-.308-.1333-.622-.2707-.94-.4123-.89-.3998-1.517-.7996-1.88-1.1994-.464-.508-.695-1.1618-.695-1.9614 0-1.0578.395-1.9323 1.185-2.6236.809-.6913 1.79-1.0369 2.944-1.0369 1.698 0 2.961.8037 3.788 2.4112z"/></g></svg>

<svg width="161" height="36" viewBox="0 0 161 36" fill="none" xmlns="http://www.w3.org/2000/svg">
<g clip-path="url(#clip0_1003_1705)">
<path opacity="0.72" d="M36.9424 16.5169C36.9247 16.3373 36.8416 16.1705 36.7088 16.0483C36.576 15.9262 36.4028 15.8572 36.2224 15.8545H18.28C17.7928 15.8664 17.3172 16.0056 16.9003 16.2582C16.4835 16.5108 16.14 16.8681 15.904 17.2945C15.6855 17.6759 15.5706 18.1078 15.5706 18.5473C15.5706 18.9868 15.6855 19.4187 15.904 19.8001C15.9664 19.92 16.059 20.0216 16.1726 20.0948C16.2862 20.1681 16.417 20.2104 16.5519 20.2177H36.2656C36.4461 20.215 36.6192 20.146 36.752 20.0238C36.8848 19.9017 36.968 19.7349 36.9856 19.5553C36.9856 18.9937 36.9856 18.5185 36.9856 18.1153C36.9856 17.7121 36.9856 17.0641 36.9424 16.5169Z" fill="white"/>
<path d="M36.928 16.5169C36.9138 16.3385 36.8337 16.1719 36.7032 16.0495C36.5728 15.927 36.4013 15.8575 36.2225 15.8545H33.3425C33.2414 15.8556 33.1418 15.878 33.05 15.9202C32.9582 15.9624 32.8763 16.0234 32.8097 16.0993C32.7425 16.1723 32.6922 16.2591 32.6624 16.3537C32.6325 16.4482 32.6238 16.5482 32.6369 16.6465C32.6369 17.1073 32.6369 17.5681 32.6369 18.0865C32.6332 20.3843 32.0509 22.6442 30.9436 24.6575C29.8362 26.6709 28.2395 28.3729 26.3008 29.6065C26.0992 29.7361 25.9121 29.8945 25.6961 30.0097C24.6395 30.6115 23.5058 31.0668 22.3264 31.3633L24.2129 34.7185C24.2769 34.8294 24.3694 34.9213 24.4808 34.9846C24.5922 35.0478 24.7183 35.0803 24.8464 35.0785C24.9226 35.0922 25.0007 35.0922 25.0769 35.0785L25.5376 34.8913L25.9552 34.7185C26.5922 34.4539 27.2126 34.151 27.8129 33.8113C30.6205 32.2298 32.9533 29.9252 34.5689 27.1371C36.1845 24.3491 37.024 21.1792 37.0001 17.9569C37.0001 17.4241 36.9712 17.0065 36.928 16.5169Z" fill="white"/>
<path d="M26.735 30.1848C26.6382 30.0206 26.4844 29.8976 26.3029 29.8392H26.1013C25.9763 29.8403 25.8531 29.8698 25.7413 29.9256C23.6879 31.094 21.3647 31.7047 19.0022 31.6968C15.3764 31.6892 11.9012 30.2455 9.33737 27.6817C6.77352 25.1178 5.32979 21.6427 5.32218 18.0169C5.32979 14.391 6.77352 10.9159 9.33737 8.35204C11.9012 5.78819 15.3764 4.34446 19.0022 4.33685C21.3636 4.33761 23.6847 4.94767 25.7413 6.10805C25.8488 6.17628 25.974 6.21134 26.1013 6.20885H26.2597C26.3584 6.18705 26.4516 6.14511 26.5334 6.08564C26.6151 6.02618 26.6838 5.95046 26.735 5.86325L28.175 3.35765C28.2702 3.19101 28.2964 2.99372 28.2479 2.80802C28.1995 2.62232 28.0802 2.46296 27.9157 2.36405C25.2052 0.832347 22.1444 0.0286665 19.031 0.0312562C14.2594 0.0388725 9.68548 1.93774 6.31148 5.31175C2.93747 8.68575 1.03862 13.2597 1.03101 18.0313C1.03862 22.8028 2.93747 27.3768 6.31148 30.7508C9.68548 34.1248 14.2594 36.0236 19.031 36.0312C22.1444 36.0338 25.2052 35.2301 27.9157 33.6984C27.9981 33.6522 28.0704 33.5899 28.1282 33.5152C28.1861 33.4405 28.2283 33.355 28.2525 33.2637C28.2767 33.1724 28.2823 33.0771 28.269 32.9836C28.2557 32.8901 28.2237 32.8002 28.175 32.7192L26.735 30.1848Z" fill="white"/>
<path opacity="0.56" d="M21.0592 20.16H16.5089C16.3799 20.1508 16.2548 20.1107 16.1445 20.043C16.0343 19.9753 15.9419 19.8821 15.8752 19.7712L24.2417 34.5888C24.3058 34.6998 24.3982 34.7916 24.5096 34.8549C24.621 34.9182 24.7472 34.9506 24.8752 34.9488C24.9563 34.9625 25.0391 34.9625 25.1201 34.9488C26.0716 34.6063 26.9919 34.1823 27.8706 33.6816C27.9529 33.6354 28.025 33.5731 28.0829 33.4984C28.1407 33.4237 28.183 33.3382 28.2072 33.2469C28.2313 33.1556 28.237 33.0603 28.2237 32.9668C28.2104 32.8733 28.1784 32.7834 28.1297 32.7024L21.0592 20.16Z" fill="white"/>
</g>
<path d="M57.4219 11.5475V28.101H54.247V11.5475H49.4097V8.81151H62.2456V11.5475H57.4219Z" fill="white"/>
<path d="M73.1058 15.9326H76.1853V28.101H73.1058V26.8267C71.8431 27.9094 70.485 28.4508 69.0315 28.4508C67.1965 28.4508 65.6795 27.8428 64.4803 26.6268C63.2903 25.3858 62.6953 23.8366 62.6953 21.9793C62.6953 20.1553 63.2903 18.6353 64.4803 17.4193C65.6704 16.2033 67.1602 15.5953 68.9498 15.5953C70.4941 15.5953 71.8794 16.1783 73.1058 17.3443V15.9326ZM65.8293 21.9793C65.8293 23.1453 66.17 24.0948 66.8513 24.8278C67.5508 25.569 68.432 25.9397 69.4948 25.9397C70.6303 25.9397 71.5478 25.5815 72.2473 24.8652C72.9468 24.124 73.2965 23.1828 73.2965 22.0418C73.2965 20.9007 72.9468 19.9596 72.2473 19.2183C71.5478 18.4937 70.6394 18.1314 69.5221 18.1314C68.4683 18.1314 67.5871 18.4979 66.8786 19.2308C66.1791 19.9721 65.8293 20.8882 65.8293 21.9793Z" fill="white"/>
<path d="M83.1211 15.9326V28.101H80.0552V15.9326H83.1211ZM79.5919 10.8729C79.5919 10.3815 79.7872 9.95672 80.1778 9.59858C80.5684 9.24044 81.0363 9.06137 81.5813 9.06137C82.1355 9.06137 82.6078 9.24044 82.9985 9.59858C83.3891 9.94839 83.5844 10.3773 83.5844 10.8854C83.5844 11.3934 83.3891 11.8265 82.9985 12.1847C82.6169 12.5428 82.1491 12.7219 81.595 12.7219C81.0408 12.7219 80.5684 12.5428 80.1778 12.1847C79.7872 11.8265 79.5919 11.3893 79.5919 10.8729Z" fill="white"/>
<path d="M90.0705 7V28.101H87.0046V7H90.0705Z" fill="white"/>
<path d="M105.359 18.0565H114.053V18.6936C114.053 20.1428 113.867 21.4255 113.494 22.5415C113.131 23.5743 112.518 24.5404 111.655 25.4399C109.701 27.4555 107.217 28.4633 104.201 28.4633C101.258 28.4633 98.7368 27.4888 96.6384 25.5399C94.5399 23.5826 93.4907 21.2339 93.4907 18.4937C93.4907 15.6952 94.5581 13.3215 96.6929 11.3726C98.8277 9.41535 101.426 8.43672 104.487 8.43672C106.131 8.43672 107.667 8.74488 109.093 9.36121C110.455 9.97754 111.795 10.977 113.113 12.3596L110.851 14.346C109.125 12.2388 107.022 11.1852 104.542 11.1852C102.316 11.1852 100.449 11.889 98.9412 13.2966C97.4332 14.6791 96.6793 16.4115 96.6793 18.4937C96.6793 20.6425 97.5195 22.4124 99.2001 23.8033C100.772 25.0943 102.475 25.7398 104.31 25.7398C105.872 25.7398 107.276 25.2567 108.521 24.2906C109.765 23.3161 110.46 22.1501 110.605 20.7925H105.359V18.0565Z" fill="white"/>
<path d="M117.473 15.9326H120.539V17.0195C121.102 16.4782 121.602 16.1075 122.038 15.9076C122.483 15.6994 123.01 15.5953 123.618 15.5953C124.427 15.5953 125.272 15.8368 126.153 16.3199L124.749 18.8935C124.168 18.5104 123.6 18.3188 123.046 18.3188C121.375 18.3188 120.539 19.4765 120.539 21.7919V28.101H117.473V15.9326Z" fill="white"/>
<path d="M131.413 15.9326V28.101H128.347V15.9326H131.413ZM127.883 10.8729C127.883 10.3815 128.079 9.95672 128.469 9.59858C128.86 9.24044 129.328 9.06137 129.873 9.06137C130.427 9.06137 130.899 9.24044 131.29 9.59858C131.681 9.94839 131.876 10.3773 131.876 10.8854C131.876 11.3934 131.681 11.8265 131.29 12.1847C130.908 12.5428 130.441 12.7219 129.887 12.7219C129.332 12.7219 128.86 12.5428 128.469 12.1847C128.079 11.8265 127.883 11.3893 127.883 10.8729Z" fill="white"/>
<path d="M145.08 7H148.159V28.101H145.08V26.8267C143.872 27.9094 142.504 28.4508 140.978 28.4508C139.161 28.4508 137.654 27.8428 136.454 26.6268C135.264 25.3858 134.669 23.8366 134.669 21.9793C134.669 20.1636 135.264 18.6478 136.454 17.4318C137.635 16.2075 139.121 15.5953 140.91 15.5953C142.464 15.5953 143.853 16.1783 145.08 17.3443V7ZM137.803 21.9793C137.803 23.1453 138.144 24.0948 138.825 24.8278C139.525 25.569 140.406 25.9397 141.469 25.9397C142.604 25.9397 143.522 25.5815 144.221 24.8652C144.921 24.124 145.271 23.1828 145.271 22.0418C145.271 20.9007 144.921 19.9596 144.221 19.2183C143.522 18.4937 142.613 18.1314 141.496 18.1314C140.442 18.1314 139.561 18.4979 138.853 19.2308C138.153 19.9721 137.803 20.8882 137.803 21.9793Z" fill="white"/>
<path d="M159.742 18.0065L157.207 19.2433C156.808 18.4937 156.312 18.1189 155.722 18.1189C155.44 18.1189 155.2 18.2064 155 18.3813C154.8 18.5479 154.7 18.7644 154.7 19.0309C154.7 19.4973 155.29 19.9596 156.471 20.4177C158.097 21.059 159.192 21.6503 159.755 22.1917C160.319 22.7331 160.6 23.4618 160.6 24.378C160.6 25.5524 160.128 26.5352 159.183 27.3264C158.266 28.076 157.157 28.4508 155.858 28.4508C153.633 28.4508 152.056 27.4555 151.13 25.4649L153.746 24.353C154.11 24.936 154.387 25.3067 154.577 25.4649C154.95 25.7814 155.395 25.9397 155.913 25.9397C156.948 25.9397 157.466 25.5066 157.466 24.6404C157.466 24.1406 157.066 23.6742 156.267 23.2411C155.958 23.0995 155.649 22.9621 155.34 22.8289C155.032 22.6956 154.718 22.5582 154.4 22.4166C153.51 22.0168 152.883 21.617 152.52 21.2172C152.056 20.7092 151.825 20.0554 151.825 19.2558C151.825 18.198 152.22 17.3235 153.01 16.6322C153.819 15.9409 154.8 15.5953 155.954 15.5953C157.652 15.5953 158.915 16.399 159.742 18.0065Z" fill="white"/>
<defs>
<clipPath id="clip0_1003_1705">
<rect width="36" height="36" fill="white" transform="translate(1)"/>
</clipPath>
</defs>
</svg>
